icon/ir/type.svg

<svg stroke-width="1.5" viewBox="0 0 24 24" fill="none" xmlns="http://www.w3.org/2000/svg" height="1em" width="1em">
  <path d="M7 16.2485C7 16.0894 6.93679 15.9368 6.82426 15.8243L3.17574 12.1757C3.06321 12.0632 3 11.9106 3 11.7515V4C3 2.89543 3.89543 2 5 2H12H19C20.1046 2 21 2.89543 21 4V11.7515C21 11.9106 20.9368 12.0632 20.8243 12.1757L17.1757 15.8243C17.0632 15.9368 17 16.0894 17 16.2485V20C17 21.1046 16.1046 22 15 22H9C7.89543 22 7 21.1046 7 20V16.2485Z" stroke="currentColor" stroke-width="1.5"/>
  <path d="M9.5 11.5L10 10.4M14.5 11.5L14 10.4M14 10.4L12 6L10 10.4M14 10.4H10" stroke="currentColor" stroke-linecap="round" stroke-linejoin="round"/>
</svg>

<svg width="24" height="24" stroke-width="1.5" fill="none" xmlns="http://www.w3.org/2000/svg"><path d="M7 16.248a.6.6 0 0 0-.176-.424l-3.648-3.648A.6.6 0 0 1 3 11.75V4a2 2 0 0 1 2-2h14a2 2 0 0 1 2 2v7.752a.6.6 0 0 1-.176.424l-3.648 3.648a.6.6 0 0 0-.176.425V20a2 2 0 0 1-2 2H9a2 2 0 0 1-2-2v-3.752Z" stroke="currentColor"/><path d="m9.5 11.5.5-1.1m4.5 1.1-.5-1.1m0 0L12 6l-2 4.4m4 0h-4" stroke="currentColor" stroke-linecap="round" stroke-linejoin="round"/></svg>
